X:1
M:6/8
K:Dm
F/2E/2|DEF E2D|d2e f2g|agf edc|AcA GEC|
D2F DFA|BAF E2D|GAB cdc|B3 d2::
f|aaf efa|bfe ecA|ecA efg|g3 ecA|
B2B BAB|dfe fed|ecA cBA|B2A c2:|